X: 9
T: Quite Prodigious
%R: reel
B: Kitty Bridges "Collection of Country Dances 1745" p.9
F: http://www.vwml.org/browse/browse-collections-dance-tune-books/browse-bridges1745
Z: 2015 John Chambers <jc:trillian.mit.edu>
N: The tune has no time signature.
M: none
L: 1/16
K: F
% - - - - - - - - - - - - - - - - - - - - - - - - - - - - -
f2 |\
f2c2c2A2 A2F2F2c2 | (def2) gab2 a4 g2c2 |\
(def2) c2A2 def2 c2A2 | def2 c2A2 G6 :|
|: g2 |\
gfef g2G2 c4 d2G2 | c4 d2G2 edcd e2f2 |\
gfef g2B2 A2b2a2g2 | agfg c2e2 f6 :|\
% - - - - - - - - - - Dance description - - - - - - - - - -
%%center Quite Prodigious
%%begintext align
%%   Set to your Part.r and turn, then to the
%% 2d Wom.n your Part.r to the 2d Man and
%% turn, Fall down two Coup.l you on the Wom.n's
%% side your Part.r on the Man's Slip up into
%% your Places then Slip down One Coup.l
%%endtext

%%sep 1 1 500
%%sep 1 1 500

